storage/app/icons/tabler/filled/file-rss.svg

<!--
unicode: "10126"
version: "3.30"
-->
<svg
  xmlns="http://www.w3.org/2000/svg"
  width="24"
  height="24"
  viewBox="0 0 24 24"
  fill="currentColor"
>
  <path d="M12 2l.117 .007a1 1 0 0 1 .876 .876l.007 .117v4l.005 .15a2 2 0 0 0 1.838 1.844l.157 .006h4l.117 .007a1 1 0 0 1 .876 .876l.007 .117v9a3 3 0 0 1 -2.824 2.995l-.176 .005h-10a3 3 0 0 1 -2.995 -2.824l-.005 -.176v-14a3 3 0 0 1 2.824 -2.995l.176 -.005zm-3 11a1 1 0 0 0 0 2a2 2 0 0 1 1.995 1.85l.005 .15a1 1 0 0 0 2 0a4 4 0 0 0 -4 -4m0 -3a1 1 0 0 0 0 2a5 5 0 0 1 5 5a1 1 0 0 0 2 0a7 7 0 0 0 -7 -7m.01 6h-.01a1 1 0 0 0 -.117 1.993l.127 .007a1 1 0 0 0 0 -2m5.989 -13.001l4.001 4.001h-4z" />
</svg>

<svg xmlns="http://www.w3.org/2000/svg" width="24" height="24" fill="currentColor" viewBox="0 0 24 24"><path d="m12 2 .117.007a1 1 0 0 1 .876.876L13 3v4l.005.15a2 2 0 0 0 1.838 1.844L15 9h4l.117.007a1 1 0 0 1 .876.876L20 10v9a3 3 0 0 1-2.824 2.995L17 22H7a3 3 0 0 1-2.995-2.824L4 19V5a3 3 0 0 1 2.824-2.995L7 2zM9 13a1 1 0 0 0 0 2 2 2 0 0 1 1.995 1.85L11 17a1 1 0 0 0 2 0 4 4 0 0 0-4-4m0-3a1 1 0 0 0 0 2 5 5 0 0 1 5 5 1 1 0 0 0 2 0 7 7 0 0 0-7-7m.01 6H9a1 1 0 0 0-.117 1.993L9.01 18a1 1 0 0 0 0-2m5.989-13.001L19 7h-4z"/></svg>
